public/svg/webpage.svg

<svg width="56" height="56" viewBox="0 0 56 56" fill="none" xmlns="http://www.w3.org/2000/svg">
<path d="M44.333 9.3335H11.6663C10.3777 9.3335 9.33301 10.3782 9.33301 11.6668V44.3335C9.33301 45.6222 10.3777 46.6668 11.6663 46.6668H44.333C45.6217 46.6668 46.6663 45.6222 46.6663 44.3335V11.6668C46.6663 10.3782 45.6217 9.3335 44.333 9.3335Z" stroke="#1B5BF7" stroke-width="3.5" stroke-linecap="round" stroke-linejoin="round"/>
<path d="M9.33301 18.6665H46.6663" stroke="#1B5BF7" stroke-width="3.5" stroke-linecap="round" stroke-linejoin="round"/>
<path d="M18.667 9.3335V18.6668" stroke="#1B5BF7" stroke-width="3.5" stroke-linecap="round" stroke-linejoin="round"/>
</svg>

<svg xmlns="http://www.w3.org/2000/svg" width="56" height="56" fill="none" stroke="#1b5bf7" stroke-width="3.5" stroke-linejoin="round" xmlns:v="https://vecta.io/nano"><path d="M44.333 9.334H11.666c-1.289 0-2.333 1.045-2.333 2.333v32.667c0 1.289 1.045 2.333 2.333 2.333h32.667c1.289 0 2.333-1.045 2.333-2.333V11.667c0-1.289-1.045-2.333-2.333-2.333z"/><path d="M9.333 18.667h37.333M18.667 9.334v9.333" stroke-linecap="round"/></svg>
